!!!COM:	de Orto, Marbrianus
!!!CDT:	~1460///-1529///
!!!OTL:	Ave Maria gratia plena
!!!AGN:	Motet
!!!SCT:	Ort2001
!!!SCA:	Ort2001
!!!voices:	4
**kern	**silbe	**kern	**silbe	**kern	**silbe	**kern	**silbe
*staff4	*staff4	*staff3	*staff3	*staff2	*staff2	*staff1	*staff1
*Ivox	*	*Ivox	*	*Ivox	*	*Ivox	*
*I"Bassus	*	*I"Tenor	*	*I"Altus	*	*I"Discantus	*
*I'B	*	*I'T	*	*I'A	*	*I'D	*
*clefF4	*	*clefGv2	*	*clefGv2	*	*clefG2	*
*k[b-]	*	*k[b-]	*	*k[b-]	*	*k[b-]	*
*M2/1	*	*M2/1	*	*M2/1	*	*M2/1	*
*met(C|)	*	*met(C|)	*	*met(C|)	*	*met(C|)	*
=1-	=1-	=1-	=1-	=1-	=1-	=1-	=1-
0FF	A-	0r	.	1F	A-	0r	.
.	.	.	.	[1A	.	.	.
=2	=2	=2	=2	=2	=2	=2	=2
1FF	-ve	0r	.	2A/]	.	0r	.
.	.	.	.	4G/	.	.	.
.	.	.	.	4F/	.	.	.
1FF	Ma-	.	.	[1c	-ve	.	.
=3	=3	=3	=3	=3	=3	=3	=3
0GG	-ri-	0r	.	2c\]	.	0r	.
.	.	.	.	2.B-\	Ma-	.	.
.	.	.	.	4A/	.	.	.
.	.	.	.	4G/	.	.	.
.	.	.	.	4F/	.	.	.
=4	=4	=4	=4	=4	=4	=4	=4
0GG	-a	0r	.	2E/	.	0r	.
.	.	.	.	1F	-ri-	.	.
.	.	.	.	2E/	.	.	.
=5	=5	=5	=5	=5	=5	=5	=5
0r	.	0F	A-	1F	-a	1c	A-
.	.	.	.	1r	.	[1f	.
=6	=6	=6	=6	=6	=6	=6	=6
0r	.	1F	-ve	0r	.	2f/]	.
.	.	.	.	.	.	2g/	.
.	.	1F	Ma-	.	.	1a	.
=7	=7	=7	=7	=7	=7	=7	=7
0r	.	0G	-ri-	0B-	A-	2.d/	-ve
.	.	.	.	.	.	4e/	.
.	.	.	.	.	.	2d/	.
.	.	.	.	.	.	[2g/	.
=8	=8	=8	=8	=8	=8	=8	=8
1r	.	0G	-a	1B-	-ve	2g/]	.
.	.	.	.	.	.	4f/	.
.	.	.	.	.	.	4e/	.
1GG	Ma-	.	.	1B-	Ma-	1d	.
=9	=9	=9	=9	=9	=9	=9	=9
4AA/	-ri-	0r	.	0c	-ri-	4c/	Ma-
4BB-/	.	.	.	.	.	4d/	.
4C/	.	.	.	.	.	4e/	.
4D\	.	.	.	.	.	4f/	.
2E\	.	.	.	.	.	2g/	.
[2F\	.	.	.	.	.	2a/	.
=10	=10	=10	=10	=10	=10	=10	=10
2F\]	.	0r	.	0c	-a	1g	-ri-
2E\	.	.	.	.	.	.	.
1F	-a	.	.	.	.	1a	-a
=11	=11	=11	=11	=11	=11	=11	=11
1.D	Ma-	2.A/	A-	0r	.	0f	A-
.	.	4G/	.	.	.	.	.
.	.	4F/	.	.	.	.	.
.	.	4E/	.	.	.	.	.
2BB-/	.	[2D/	.	.	.	.	.
=12	=12	=12	=12	=12	=12	=12	=12
2BB-/	.	4D/]	.	0r	.	1f	-ve
.	.	4E/	.	.	.	.	.
1D	.	4F/	.	.	.	.	.
.	.	4G/	.	.	.	.	.
.	.	2A/	.	.	.	1f	Ma-
2BB-/	.	[2B-\	.	.	.	.	.
=13	=13	=13	=13	=13	=13	=13	=13
1E-	.	2B-\]	.	2G/	Ma-	0g	-ri-
.	.	2G/	.	2.c\	.	.	.
1C	.	1c	-ve	.	.	.	.
.	.	.	.	4d\	.	.	.
.	.	.	.	[2e\	.	.	.
=14	=14	=14	=14	=14	=14	=14	=14
2.G\	-ri-	1B-	Ma-	2e\]	.	0g	-a
.	.	.	.	1d	.	.	.
4F\	.	.	.	.	.	.	.
1E	.	1G	.	.	.	.	.
.	.	.	.	2c\	.	.	.
=15	=15	=15	=15	=15	=15	=15	=15
0D	-a	2.A/	-ri-	2.d\	-ri-	1.f	.
.	.	4G/	.	4c\	.	.	.
.	.	1F	-a	1A	.	.	.
.	.	.	.	.	.	2d/	.
=16	=16	=16	=16	=16	=16	=16	=16
0GG	gra-	2r	.	1B-	-a	1d	.
.	.	2.G/	Ma-	.	.	.	.
.	.	.	.	2r	.	1B-	.
.	.	4F/	.	.	.	.	.
.	.	4E/	.	2B-\	gra-	.	.
.	.	4D/	.	.	.	.	.
=17	=17	=17	=17	=17	=17	=17	=17
1GG	-ti-	2E/	.	2G/	-ti-	2r	.
.	.	2.D/	-ri-	2B-\	.	2d/	Ma-
1FF	-a	.	.	1A	-a	2.f/	.
.	.	4E/	.	.	.	.	.
.	.	[2F/	.	.	.	.	.
.	.	.	.	.	.	4e/	.
=18	=18	=18	=18	=18	=18	=18	=18
0GG	ple-	4F/]	.	2r	.	4d/	.
.	.	4E/	.	.	.	4c/	.
.	.	4D/	.	2G/	gra-	2d/	.
.	.	4C/	.	.	.	.	.
.	.	1D	.	2.G/	-ti-	2.Bni/	-ri-
.	.	.	.	4F/	.	4A/	.
=19	=19	=19	=19	=19	=19	=19	=19
0AA	.	1C	-a	2.E/	.	1c	-a
.	.	.	.	4D/	.	.	.
.	.	1r	.	2C/	.	1r	.
.	.	.	.	[2c\	.	.	.
=20	=20	=20	=20	=20	=20	=20	=20
1GG	.	0r	.	2c\]	.	0g	gra-
.	.	.	.	2Bni\	.	.	.
1C	-na	.	.	2c\	-a	.	.
.	.	.	.	4C/	ple-	.	.
.	.	.	.	4D/	.	.	.
=21	=21	=21	=21	=21	=21	=21	=21
0r	.	0r	.	4E/	.	1g	-ti-
.	.	.	.	4F/	.	.	.
.	.	.	.	2G/	.	.	.
.	.	.	.	2A/	.	1f	-a
.	.	.	.	[2B-\	.	.	.
=22	=22	=22	=22	=22	=22	=22	=22
1r	.	0r	.	4B-\]	.	0g	ple-
.	.	.	.	4A/	.	.	.
.	.	.	.	4G/	.	.	.
.	.	.	.	4F/	.	.	.
1C	ple-	.	.	1E	-na	.	.
=23	=23	=23	=23	=23	=23	=23	=23
1FF	-na	2r	.	0c	gra-	2.a/	.
.	.	1F	Ma-	.	.	.	.
.	.	.	.	.	.	4g/	.
1r	.	.	.	.	.	2a/	.
.	.	[2E-/	.	.	.	[2g/	.
=24	=24	=24	=24	=24	=24	=24	=24
0r	.	2E-/]	.	1c	-ti-	2g/]	.
.	.	4D/	.	.	.	4f/	.
.	.	4C/	.	.	.	4e/	.
.	.	1G	.	1B-	-a	1d	.
=25	=25	=25	=25	=25	=25	=25	=25
0r	.	1G	-ri-	0c	ple-	2c/	.
.	.	.	.	.	.	2g/	.
.	.	2F/	.	.	.	2a/	.
.	.	2A/	.	.	.	[2cc\	.
=26	=26	=26	=26	=26	=26	=26	=26
1r	.	0G	-a	0d	.	2cc\]	.
.	.	.	.	.	.	4b-\	.
.	.	.	.	.	.	4a/	.
1GG	gra-	.	.	.	.	4b-\	.
.	.	.	.	.	.	4a/	.
.	.	.	.	.	.	4g/	.
.	.	.	.	.	.	4f/	.
=27	=27	=27	=27	=27	=27	=27	=27
2C/	-ti-	0G	gra-	1c	.	2e/	.
4BB-/	.	.	.	.	.	2.g/	.
4AA/	.	.	.	.	.	.	.
2GG/	-a	.	.	2B-\	.	.	.
.	.	.	.	.	.	4f/	.
[2C/	ple-	.	.	2G/	.	4e/	.
.	.	.	.	.	.	4d/	.
=28	=28	=28	=28	=28	=28	=28	=28
2C/]	.	1G	-ti-	1c	-na	2e/	.
2E\	.	.	.	.	.	1c	.
1D	.	1F	-a	2r	.	.	.
.	.	.	.	2F/	gra-	2Bni/	.
=29	=29	=29	=29	=29	=29	=29	=29
1C	-na	0G	ple-	2E/	-ti-	2c/	.
.	.	.	.	2C/	-a	1e	.
1BB-	.	.	.	1D	ple-	.	.
.	.	.	.	.	.	[2d/	.
=30	=30	=30	=30	=30	=30	=30	=30
1AA	.	0A	-na	1E	.	2d/]	.
.	.	.	.	.	.	2c#i/	.
1r	.	.	.	1D	.	1d	-na
=31	=31	=31	=31	=31	=31	=31	=31
0AA	Do-	1.c	ple-	4C/	.	0r	.
.	.	.	.	4D/	.	.	.
.	.	.	.	4E/	.	.	.
.	.	.	.	4F/	.	.	.
.	.	.	.	2E/	.	.	.
.	.	4B-\	.	[2F/	.	.	.
.	.	4A/	.	.	.	.	.
=32	=32	=32	=32	=32	=32	=32	=32
1GG	-mi-	1B-	.	2F/]	.	1r	.
.	.	.	.	2E/	.	.	.
1FF	-nus	1A	-na	1A	.	1c	ple-
=33	=33	=33	=33	=33	=33	=33	=33
0GG	te-	0r	.	2G/	.	2B-/	.
.	.	.	.	1F	.	1d	.
.	.	.	.	2E/	.	4c/	.
.	.	.	.	.	.	4B-/	.
=34	=34	=34	=34	=34	=34	=34	=34
0FF	-cum.	0A	Do-	1F	-na	1A	-na
.	.	.	.	1r	.	2r	.
.	.	.	.	.	.	2c/	ple-
=35	=35	=35	=35	=35	=35	=35	=35
0r	.	1G	-mi-	0r	.	2.d/	.
.	.	.	.	.	.	4e/	.
.	.	1F	-nus	.	.	4f/	.
.	.	.	.	.	.	4g/	.
.	.	.	.	.	.	2a/	.
=36	=36	=36	=36	=36	=36	=36	=36
1r	.	0G	te-	0r	.	2g/	.
.	.	.	.	.	.	1f	.
1C	Do-	.	.	.	.	.	.
.	.	.	.	.	.	2e/	-na
=37	=37	=37	=37	=37	=37	=37	=37
2D\	.	0F	-cum.	4F/	ple-	0a	Do-
.	.	.	.	4G/	.	.	.
1.F	.	.	.	4A/	.	.	.
.	.	.	.	4B-\	.	.	.
.	.	.	.	[1c	.	.	.
=38	=38	=38	=38	=38	=38	=38	=38
2C/	-mi-	0r	.	2c\]	.	1g	-mi-
2E\	.	.	.	1B-	.	.	.
1D	-nus	.	.	.	.	1f	-nus
.	.	.	.	[2A/	.	.	.
=39	=39	=39	=39	=39	=39	=39	=39
0C	te-	0r	.	2A/]	.	0g	te-
.	.	.	.	4G/	.	.	.
.	.	.	.	4F/	.	.	.
.	.	.	.	1E	-na	.	.
=40	=40	=40	=40	=40	=40	=40	=40
0FF	-cum.	0r	.	1r	.	0f	-cum.
.	.	.	.	1c	Do-	.	.
=41	=41	=41	=41	=41	=41	=41	=41
0r	.	2.BB-/	Do-	0d	.	0r	.
.	.	4C/	.	.	.	.	.
.	.	4D/	.	.	.	.	.
.	.	4E/	.	.	.	.	.
.	.	4F/	.	.	.	.	.
.	.	4G/	.	.	.	.	.
=42	=42	=42	=42	=42	=42	=42	=42
1r	.	2E/	.	1c	-mi-	0r	.
.	.	2C/	.	.	.	.	.
1GG	Do-	1D	-mi-	1B-	-nus	.	.
=43	=43	=43	=43	=43	=43	=43	=43
0AA	.	2C/	-nus	0c	te-	0r	.
.	.	2.G/	te-	.	.	.	.
.	.	4F#i/	.	.	.	.	.
.	.	4F#i/	.	.	.	.	.
.	.	4E/	.	.	.	.	.
=44	=44	=44	=44	=44	=44	=44	=44
1GG	-mi-	1G	-cum.	1B-	-cum.	2.d/	Do-
.	.	.	.	.	.	4e/	.
1AA	-nus	1C	Do-	1r	.	4f/	.
.	.	.	.	.	.	4g/	.
.	.	.	.	.	.	2a/	.
=45	=45	=45	=45	=45	=45	=45	=45
2GG/	te-	2D/	.	0r	.	2b-\	.
2FF/	.	2.F/	.	.	.	1cc	.
1GG	.	.	.	.	.	.	.
.	.	4E/	.	.	.	.	.
.	.	2E/	-mi-	.	.	2b-\	.
=46	=46	=46	=46	=46	=46	=46	=46
1FF	-cum.	1F	-nus	1r	.	1a	.
1r	.	[1E-	te-	[1B-	Do-	2g/	-mi-
.	.	.	.	.	.	2f/	-nus
=47	=47	=47	=47	=47	=47	=47	=47
0r	.	1E-]	.	2B-\]	.	1g	te-
.	.	.	.	2c\	.	.	.
.	.	2.D/	.	1d	.	2.f/	.
.	.	4Eni/	.	.	.	4g/	.
=48	=48	=48	=48	=48	=48	=48	=48
1r	.	2F/	.	2c\	-mi-	2a/	.
.	.	2G/	.	2B-\	-nus	1b-	.
1FF	Do-	1F	.	1c	te-	.	.
.	.	.	.	.	.	2a/	.
=49	=49	=49	=49	=49	=49	=49	=49
1GG	-mi-	2D/	.	1B-	-cum.	1b-	.
.	.	2E/	.	.	.	.	.
1FF	-nus	1F	.	2r	.	1a	.
.	.	.	.	[2c\	Do-	.	.
=50	=50	=50	=50	=50	=50	=50	=50
2r	.	2C/	.	2c\]	.	2g/	.
2FF/	Do-	1F	.	2A/	.	2f/	.
1C	-mi-	.	.	2G/	.	1g	.
.	.	2E/	-cum.	2c\	.	.	.
=51	=51	=51	=51	=51	=51	=51	=51
1D	-nus	1A	Do-	1A	.	1f	-cum.
2E\	te-	2G/	-mi-	[1c	.	1r	.
[2F\	.	2F/	-nus	.	.	.	.
=52	=52	=52	=52	=52	=52	=52	=52
2F\]	.	1G	te-	1c]	.	1r	.
2E\	.	.	.	.	.	.	.
1F	-cum.	1F	-cum.	[1c	-mi-	1a	Do-
=53	=53	=53	=53	=53	=53	=53	=53
2r	.	2C/	Do-	2c\]	.	2g/	-mi-
2FF/	Do-	1D	.	2A/	-nus	2f/	-nus
1EE	-mi-	.	.	1G	te-	1g	te-
.	.	2C/	.	.	.	.	.
=54	=54	=54	=54	=54	=54	=54	=54
2DD/	-nus	2D/	.	1A	.	1f	-cum.
1FF	te-	2AA/	-mi-	.	.	.	.
.	.	[1C	-nus	1G	.	1r	.
2EE/	.	.	.	.	.	.	.
=55	=55	=55	=55	=55	=55	=55	=55
1FF	-cum.	2C/]	.	1F	-cum.	1a	Do-
.	.	2F/	te-	.	.	.	.
1r	.	2E-/	.	[1B-	Do-	2g/	-mi-
.	.	2D/	.	.	.	2f/	-nus
=56	=56	=56	=56	=56	=56	=56	=56
1r	.	1E-i	.	1B-]	.	1g	te-
2r	.	1F	-cum.	2A/	-mi-	2f/	-cum.
2F\	Do-	.	.	[2c\	-nus	2a/	Do-
=57	=57	=57	=57	=57	=57	=57	=57
2E-\	.	0r	.	2c\]	.	2g/	-mi-
2D\	.	.	.	2d\	.	2f/	-nus
1E-i	-mi-	.	.	2B-\	te-	1g	te-
.	.	.	.	2c\	.	.	.
=58	=58	=58	=58	=58	=58	=58	=58
1D	-nus	1A	Do-	1d	.	1f	-cum.
2E-i\	te-	2G/	-mi-	1B-	-cum.	2r	.
2D\	.	2F/	-nus	.	.	2f/	Do-
=59	=59	=59	=59	=59	=59	=59	=59
2C/	.	1G	te-	1r	.	2e/	.
1BB-	.	.	.	.	.	1d	.
.	.	1F	-cum.	2B-\	Do-	.	.
2AA/	.	.	.	2c\	-mi-	2c/	-mi-
=60	=60	=60	=60	=60	=60	=60	=60
2GG/	.	1r	.	2B-\	-nus	2d/	-nus
2FF/	-cum.	.	.	2c\	te-	2A/	.
2r	.	1A	Do-	1F	-cum.	[1c	te-
2F\	Do-	.	.	.	.	.	.
=61	=61	=61	=61	=61	=61	=61	=61
2E\	-mi-	2G/	-mi-	1r	.	2c/]	.
1D	-nus	2F/	-nus	.	.	2d/	.
.	.	1G	te-	1E-	Do-	2B-/	.
2C/	te-	.	.	.	.	2c/	.
=62	=62	=62	=62	=62	=62	=62	=62
2D\	.	1F	-cum.	2.D/	-mi-	4A/	.
.	.	.	.	.	.	4B-/	.
4C/	.	.	.	.	.	4c/	.
4BB-/	.	.	.	4E/	.	4d/	.
2AA/	.	1r	.	4F/	.	2c/	.
.	.	.	.	4G/	.	.	.
2FF/	.	.	.	[2A/	.	[2f/	.
=63	=63	=63	=63	=63	=63	=63	=63
1F	-cum.	1A	Do-	4A/]	.	4f/]	.
.	.	.	.	4B-\	.	4g/	.
.	.	.	.	2c\	.	2a/	.
1r	.	2G/	-mi-	2d\	.	2b-\	.
.	.	2F/	-nus	[2f\	-nus	[2cc\	.
=64	=64	=64	=64	=64	=64	=64	=64
0r	.	1G	te-	4f\]	.	2cc\]	.
.	.	.	.	4e\	.	.	.
.	.	.	.	2e\	te-	2b-\	.
.	.	1F	-cum.	2f\	.	2a/	.
.	.	.	.	4e\	.	4g/	.
.	.	.	.	4d\	.	4f/	.
=65	=65	=65	=65	=65	=65	=65	=65
*M3/1	*	*M3/1	*	*M3/1	*	*M3/1	*
*met(3)	*	*met(3)	*	*met(3)	*	*met(3)	*
0.r	.	0A	Do-	0c	.	1e	.
.	.	.	.	.	.	1f	.
.	.	1G	-mi-	1B-	-cum.	1g	-cum.
=66	=66	=66	=66	=66	=66	=66	=66
0FF	Do-	1F	-nus	1c	Do-	1a	Do-
.	.	0G	te-	1B-	.	0b-	.
1EE	.	.	.	1G	.	.	.
=67	=67	=67	=67	=67	=67	=67	=67
2FF/	.	0F	-cum.	1c	.	0a	-mi-
2GG/	.	.	.	.	.	.	.
2AA/	.	.	.	1F	-mi-	.	.
2BB-/	.	.	.	.	.	.	.
1C	.	1r	.	1E	.	1g	-nus
=68	=68	=68	=68	=68	=68	=68	=68
1D	-mi-	0A	Do-	1F	.	1f	te-
0C	-nus	.	.	0c	-nus	0e	.
.	.	1G	-mi-	.	.	.	.
=69	=69	=69	=69	=69	=69	=69	=69
0D	te-	0F	-nus	1.A	te-	1.a	.
.	.	.	.	2B-\	.	2g/	.
1C	.	[1G	te-	1c	.	1e	.
=70	=70	=70	=70	=70	=70	=70	=70
1BB-	.	0.G]	.	1d	.	1.f	.
0C	.	.	.	0c	.	.	.
.	.	.	.	.	.	2e/	.
.	.	.	.	.	.	2e/	.
.	.	.	.	.	.	2d/	.
=71	=71	=71	=71	=71	=71	=71	=71
*M2/1	*	*M2/1	*	*M2/1	*	*M2/1	*
*met(C|)	*	*met(C|)	*	*met(C|)	*	*met(C|)	*
0FFl	-cum.	0Fl	-cum.	0cl	-cum.	0fl	-cum.
==	==	==	==	==	==	==	==
*-	*-	*-	*-	*-	*-	*-	*-
!!!RDF**kern: l=long note in original notation
!!!RDF**kern: i=editorial accidental
!!!RDF**kern: V=start of tuplet marker
!!!RDF**kern: Z=end of tuplet marker
!!!ENC:	Jesse Rodin (8/2012)
!!!END:	2012/08/11/
!!!EED:	Jesse Rodin
!!!EEV:	2012/08/12/
!!!ONB:	Translated from MusicXML and edited on 2012/08/12/ by Craig Sapp
!!muse2ps: C^@{COM}^i2I150v85,85,85,150Q16
